X: 41981
T: Walls Of Limerick, The
R: reel
M: 4/4
K: Dmajor
|:dc|BEEF GBAG|(3FED ADBDAD|GFEF GABc|dcdf e2:|
ef|:gfef gbag|fddc dfaf|1 gfef gbaf|
gfed Beef:|2 bgaf gfed|Bcdf e2||

